X: 13725
T: Forde's
R: polka
M: 2/4
K: Dmixolydian
|:AD FA|dc AB|c2 cE|EF GE|
AD FA|dc AB|c2 cE|ED D2:|
|:fg/f/ ed|^cA Ae|fg/f/ ef|ag ge|
fg/f/ ed|^cA AB|c2 cE|ED D2:|

